packages/axiom-materials/src/icon_svgs/sun.svg

<svg xmlns="http://www.w3.org/2000/svg" width="16" height="16" viewBox="0 0 16 16">
  <path fill-rule="evenodd" fill="#000000" d="M12.0003,8 C12.0003,10.209 10.2093,12 8.0003,12 C5.7913,12 4.0003,10.209 4.0003,8 C4.0003,5.791 5.7913,4 8.0003,4 C10.2093,4 12.0003,5.791 12.0003,8 Z M7.375,3.5 L7.375,1 L8.625,1 L8.625,3.5 L7.375,3.5 Z M6.2913,3.79 L5.2083,4.415 L3.9583,2.25 L5.0413,1.625 L6.2913,3.79 Z M4.4154,5.209 L3.7904,6.291 L1.6254,5.041 L2.2504,3.959 L4.4154,5.209 Z M1,8.625 L1,7.375 L3.5,7.375 L3.5,8.625 L1,8.625 Z M3.7904,9.709 L4.4154,10.791 L2.2504,12.041 L1.6254,10.959 L3.7904,9.709 Z M5.2083,11.585 L6.2913,12.21 L5.0413,14.375 L3.9583,13.75 L5.2083,11.585 Z M7.375,15 L7.375,12.5 L8.625,12.5 L8.625,15 L7.375,15 Z M9.7083,12.21 L10.7913,11.585 L12.0413,13.75 L10.9583,14.375 L9.7083,12.21 Z M11.5843,10.791 L12.2093,9.709 L14.3743,10.959 L13.7493,12.041 L11.5843,10.791 Z M12.5,8.625 L12.5,7.375 L15,7.375 L15,8.625 L12.5,8.625 Z M12.2093,6.291 L11.5843,5.209 L13.7493,3.959 L14.3743,5.041 L12.2093,6.291 Z M10.7913,4.415 L9.7083,3.79 L10.9583,1.625 L12.0413,2.25 L10.7913,4.415 Z"/>
</svg>

<svg height="16" viewBox="0 0 16 16" width="16" xmlns="http://www.w3.org/2000/svg"><path d="m12.0003 8c0 2.209-1.791 4-4 4s-4-1.791-4-4 1.791-4 4-4 4 1.791 4 4zm-4.6253-4.5v-2.5h1.25v2.5zm-1.0837.29-1.083.625-1.25-2.165 1.083-.625zm-1.8759 1.419-.625 1.082-2.165-1.25.625-1.082zm-3.4154 3.416v-1.25h2.5v1.25zm2.7904 1.084.625 1.082-2.165 1.25-.625-1.082zm1.4179 1.876 1.083.625-1.25 2.165-1.083-.625zm2.1667 3.415v-2.5h1.25v2.5zm2.3333-2.79 1.083-.625 1.25 2.165-1.083.625zm1.876-1.419.625-1.082 2.165 1.25-.625 1.082zm.9157-2.166v-1.25h2.5v1.25zm-.2907-2.334-.625-1.082 2.165-1.25.625 1.082zm-1.418-1.876-1.083-.625 1.25-2.165 1.083.625z" fill-rule="evenodd"/></svg>
